frontend/src/lib/assets/logo.svg

<svg xmlns="http://www.w3.org/2000/svg" fill="#61777f" viewBox="0 0 1000 1012"><svg viewBox="0 0 244 247" data-background-color="#ffffff" xmlns="http://www.w3.org/2000/svg" xmlns:xlink="http://www.w3.org/1999/xlink" transform="translate(.884 .41)"><svg viewBox="0 0 244.431 247.2" transform="translate(-.216 -.1)"><svg/><svg viewBox="0 0 244.431 247.2"><svg viewBox="0 0 244.431 117.76" transform="translate(0 64.72)"><svg viewBox="0 0 244.431 117.76"><svg viewBox="0 0 244.431 117.76"><svg viewBox="0 0 244.431 117.76"><svg viewBox="0 0 244.431 117.76"><svg viewBox="0 0 244.431 117.76"><svg viewBox="3.85 -33.7 69.95 33.7"><path d="M7.9-14.2V0H3.85v-33.7h5.1l8.45 14.2 8.55 14.6q-.2-4.85-.2-14.55V-33.7h4.05V0h-5.1l-8.45-14.1q-2.55-4.25-4.7-7.93Q9.4-25.7 8.5-27.3l-.85-1.55q.25 5.2.25 14.65zm39.85-19.5v25.05Q47.75 0 39.9 0q-2.8 0-4.75-1.1V-5q2 1.3 4.2 1.3 4.35 0 4.35-4.6v-25.4h4.05zM73.8-3.65V0H55.4v-33.7h4.05v30.05H73.8z" class="prefix__wordmark-text-0"/></svg></svg></svg></svg></svg></svg></svg><path d="M0 58.72V1h244.431v57.72h-10.619v-47.1H10.62v47.1H0m0 129.76v57.72h244.431v-57.72h-10.619v47.1H10.62v-47.1H0" stroke="transparent"/></svg></svg></svg></svg>

<svg xmlns="http://www.w3.org/2000/svg" version="1.1" xmlns:xlink="http://www.w3.org/1999/xlink" xmlns:svgjs="http://svgjs.dev/svgjs" width="1000" height="1012" viewBox="0 0 1000 1012"><g transform="matrix(1,0,0,1,0.883934426229473,0.40971659919023296)"><svg viewBox="0 0 244 247" data-background-color="#ffffff" preserveAspectRatio="xMidYMid meet" height="1012" width="1000" xmlns="http://www.w3.org/2000/svg" xmlns:xlink="http://www.w3.org/1999/xlink"><g id="tight-bounds" transform="matrix(1,0,0,1,-0.21567999999999188,-0.09999999999999432)"><svg viewBox="0 0 244.43135999999998 247.2" height="247.2" width="244.43135999999998"><g><svg></svg></g><g><svg viewBox="0 0 244.43135999999998 247.2" height="247.2" width="244.43135999999998"><g transform="matrix(1,0,0,1,0,64.71982250178698)"><svg viewBox="0 0 244.43135999999998 117.76035499642602" height="117.76035499642602" width="244.43135999999998"><g><svg viewBox="0 0 244.43135999999998 117.76035499642602" height="117.76035499642602" width="244.43135999999998"><g><svg viewBox="0 0 244.43135999999998 117.76035499642602" height="117.76035499642602" width="244.43135999999998"><g><svg viewBox="0 0 244.43135999999998 117.76035499642602" height="117.76035499642602" width="244.43135999999998"><g id="textblocktransform"><svg viewBox="0 0 244.43135999999998 117.76035499642602" height="117.76035499642602" width="244.43135999999998" id="textblock"><g><svg viewBox="0 0 244.43135999999998 117.76035499642602" height="117.76035499642602" width="244.43135999999998"><g transform="matrix(1,0,0,1,0,0)"><svg width="244.43135999999998" viewBox="3.8499999046325684 -33.70000076293945 69.95000457763672 33.70000076293945" height="117.76035499642602" data-palette-color="#61777f"><path d="M7.9-14.2L7.9 0 3.85 0 3.85-33.7 8.95-33.7 17.4-19.5 25.95-4.9Q25.75-9.75 25.75-19.45L25.75-19.45 25.75-33.7 29.8-33.7 29.8 0 24.7 0 16.25-14.1Q13.7-18.35 11.55-22.03 9.4-25.7 8.5-27.3L8.5-27.3 7.65-28.85Q7.9-23.65 7.9-14.2L7.9-14.2ZM47.75-33.7L47.75-8.65Q47.75 0 39.9 0L39.9 0Q37.1 0 35.15-1.1L35.15-1.1 35.15-5Q37.15-3.7 39.35-3.7L39.35-3.7Q43.7-3.7 43.7-8.3L43.7-8.3 43.7-33.7 47.75-33.7ZM73.8-3.65L73.8 0 55.4 0 55.4-33.7 59.45-33.7 59.45-3.65 73.8-3.65Z" opacity="1" transform="matrix(1,0,0,1,0,0)" fill="#61777f" class="wordmark-text-0" data-fill-palette-color="primary" id="text-0"></path></svg></g></svg></g></svg></g></svg></g><g></g></svg></g></svg></g></svg></g><path d="M0 58.72L0 1 244.431 1 244.431 58.72 233.812 58.72 233.812 11.62 10.62 11.62 10.62 58.72 0 58.72M0 188.48L0 246.2 244.431 246.2 244.431 188.48 233.812 188.48 233.812 235.58 10.62 235.58 10.62 188.48 0 188.48" fill="#61777f" stroke="transparent" data-fill-palette-color="primary"></path></svg></g><defs></defs></svg><rect width="244.43135999999998" height="247.2" fill="none" stroke="none" visibility="hidden"></rect></g></svg></g></svg>
